packages/wallets/src/public/images/ic-password-show.svg

<svg xmlns="http://www.w3.org/2000/svg" width="16" height="16" viewBox="0 0 16 16" fill="none">
  <path d="M8.33333 4C10.9116 4 13.2109 5.54909 14.3333 8C13.2109 10.4509 10.9184 12 8.33333 12C5.7483 12 3.45578 10.4509 2.33333 8C3.45578 5.54909 5.7551 4 8.33333 4ZM8.33333 3C5 3 2.15333 5.07333 1 8C2.15333 10.9267 5 13 8.33333 13C11.6667 13 14.5133 10.9267 15.6667 8C14.5133 5.07333 11.6667 3 8.33333 3ZM8.33333 6C9.43733 6 10.3333 6.896 10.3333 8C10.3333 9.104 9.43733 10 8.33333 10C7.22933 10 6.33333 9.104 6.33333 8C6.33333 6.896 7.22933 6 8.33333 6ZM8.33333 5C6.68 5 5.33333 6.34667 5.33333 8C5.33333 9.65333 6.68 11 8.33333 11C9.98667 11 11.3333 9.65333 11.3333 8C11.3333 6.34667 9.98667 5 8.33333 5Z" fill="#333333"/>
</svg>

<svg xmlns="http://www.w3.org/2000/svg" width="16" height="16" viewBox="0 0 16 16" fill="none"><path fill="#999" d="M8.333 4c2.579 0 4.878 1.55 6 4-1.122 2.45-3.415 4-6 4s-4.877-1.55-6-4c1.123-2.45 3.422-4 6-4Zm0-1C5 3 2.153 5.073 1 8c1.153 2.927 4 5 7.333 5 3.334 0 6.18-2.073 7.334-5-1.154-2.927-4-5-7.334-5Zm0 3a2 2 0 1 1-.001 4.001A2 2 0 0 1 8.333 6Zm0-1c-1.653 0-3 1.347-3 3s1.347 3 3 3c1.654 0 3-1.347 3-3s-1.346-3-3-3Z"/></svg>
